icons/zoom-in.svg

<svg xmlns="http://www.w3.org/2000/svg" width="96" height="96"><path d="M68.127 62.527C73.184 56.133 76 48.177 76 40c0-9.5-3.8-18.7-10.5-25.5C58.7 7.8 49.5 4 40 4S21.3 7.8 14.5 14.5C7.8 21.3 4 30.5 4 40s3.8 18.7 10.5 25.5C21.3 72.2 30.5 76 40 76c8.178 0 16.133-2.816 22.527-7.873L85.2 90.8c.7.8 1.7 1.2 2.8 1.2 1.1 0 2.1-.4 2.8-1.2.8-.7 1.2-1.7 1.2-2.8 0-1.1-.4-2.1-1.2-2.8L68.127 62.527zM12 40c0 7.4 3 14.5 8.2 19.8C25.5 65 32.6 68 40 68s14.5-3 19.8-8.2C65 54.5 68 47.4 68 40s-3-14.5-8.2-19.8C54.5 15 47.4 12 40 12s-14.5 3-19.8 8.2C15 25.5 12 32.6 12 40zm24-4h-8c-1.1 0-2.1.4-2.8 1.2-.8.7-1.2 1.7-1.2 2.8 0 1.1.4 2.1 1.2 2.8.7.8 1.7 1.2 2.8 1.2h8v8c0 1.1.4 2.1 1.2 2.8.7.8 1.7 1.2 2.8 1.2 1.1 0 2.1-.4 2.8-1.2.8-.7 1.2-1.7 1.2-2.8v-8h8c1.1 0 2.1-.4 2.8-1.2.8-.7 1.2-1.7 1.2-2.8 0-1.1-.4-2.1-1.2-2.8-.7-.8-1.7-1.2-2.8-1.2h-8v-8c0-1.1-.4-2.1-1.2-2.8-.7-.8-1.7-1.2-2.8-1.2-1.1 0-2.1.4-2.8 1.2-.8.7-1.2 1.7-1.2 2.8v8z" fill-rule="evenodd" fill="#454545"/></svg>

<?xml version="1.0" standalone="no"?><!-- Generator: Gravit.io --><svg xmlns="http://www.w3.org/2000/svg" xmlns:xlink="http://www.w3.org/1999/xlink" width="96" height="96"><path d=" M 68.12671991522 62.52671991522 C 73.18421608882495 56.13311234912618 76 48.17770553947789 76 40 C 76 30.5 72.2 21.3 65.5 14.5 C 58.7 7.8 49.5 4 40 4 C 30.5 4 21.3 7.8 14.5 14.5 C 7.8 21.3 4 30.5 4 40 L 4 40 C 4 49.5 7.8 58.7 14.5 65.5 C 21.3 72.2 30.5 76 40 76 C 48.17770553947789 76 56.13311234912618 73.18421608882495 62.52671991522 68.12671991522 L 85.2 90.8 C 85.9 91.6 86.9 92 88 92 C 89.1 92 90.1 91.6 90.8 90.8 C 91.6 90.1 92 89.1 92 88 C 92 86.9 91.6 85.9 90.8 85.2 L 68.12671991522 62.52671991522 Z  M 12 40 C 12 47.4 15 54.5 20.2 59.8 C 25.5 65 32.6 68 40 68 C 47.4 68 54.5 65 59.8 59.8 C 65 54.5 68 47.4 68 40 C 68 32.6 65 25.5 59.8 20.2 C 54.5 15 47.4 12 40 12 C 32.6 12 25.5 15 20.2 20.2 C 15 25.5 12 32.6 12 40 L 12 40 Z  M 36 36 L 28 36 C 26.9 36 25.9 36.4 25.2 37.2 C 24.4 37.9 24 38.9 24 40 C 24 41.1 24.4 42.1 25.2 42.8 C 25.9 43.6 26.9 44 28 44 L 36 44 L 36 52 C 36 53.1 36.4 54.1 37.2 54.8 C 37.9 55.6 38.9 56 40 56 C 41.1 56 42.1 55.6 42.8 54.8 C 43.6 54.1 44 53.1 44 52 L 44 44 L 52 44 C 53.1 44 54.1 43.6 54.8 42.8 C 55.6 42.1 56 41.1 56 40 C 56 38.9 55.6 37.9 54.8 37.2 C 54.1 36.4 53.1 36 52 36 L 44 36 L 44 28 C 44 26.9 43.6 25.9 42.8 25.2 C 42.1 24.4 41.1 24 40 24 C 38.9 24 37.9 24.4 37.2 25.2 C 36.4 25.9 36 26.9 36 28 L 36 36 Z " fill-rule="evenodd" fill="#454545" stroke="none"/><mask id="_mask_v0FNT6buZ3tIazav6JORJmBUZWq8DI2y"><path d=" M 68.12671991522 62.52671991522 C 73.18421608882495 56.13311234912618 76 48.17770553947789 76 40 C 76 30.5 72.2 21.3 65.5 14.5 C 58.7 7.8 49.5 4 40 4 C 30.5 4 21.3 7.8 14.5 14.5 C 7.8 21.3 4 30.5 4 40 L 4 40 C 4 49.5 7.8 58.7 14.5 65.5 C 21.3 72.2 30.5 76 40 76 C 48.17770553947789 76 56.13311234912618 73.18421608882495 62.52671991522 68.12671991522 L 85.2 90.8 C 85.9 91.6 86.9 92 88 92 C 89.1 92 90.1 91.6 90.8 90.8 C 91.6 90.1 92 89.1 92 88 C 92 86.9 91.6 85.9 90.8 85.2 L 68.12671991522 62.52671991522 Z  M 12 40 C 12 47.4 15 54.5 20.2 59.8 C 25.5 65 32.6 68 40 68 C 47.4 68 54.5 65 59.8 59.8 C 65 54.5 68 47.4 68 40 C 68 32.6 65 25.5 59.8 20.2 C 54.5 15 47.4 12 40 12 C 32.6 12 25.5 15 20.2 20.2 C 15 25.5 12 32.6 12 40 L 12 40 Z  M 36 36 L 28 36 C 26.9 36 25.9 36.4 25.2 37.2 C 24.4 37.9 24 38.9 24 40 C 24 41.1 24.4 42.1 25.2 42.8 C 25.9 43.6 26.9 44 28 44 L 36 44 L 36 52 C 36 53.1 36.4 54.1 37.2 54.8 C 37.9 55.6 38.9 56 40 56 C 41.1 56 42.1 55.6 42.8 54.8 C 43.6 54.1 44 53.1 44 52 L 44 44 L 52 44 C 53.1 44 54.1 43.6 54.8 42.8 C 55.6 42.1 56 41.1 56 40 C 56 38.9 55.6 37.9 54.8 37.2 C 54.1 36.4 53.1 36 52 36 L 44 36 L 44 28 C 44 26.9 43.6 25.9 42.8 25.2 C 42.1 24.4 41.1 24 40 24 C 38.9 24 37.9 24.4 37.2 25.2 C 36.4 25.9 36 26.9 36 28 L 36 36 Z " fill-rule="evenodd" fill="white" stroke="none"/></mask><path d=" M 68.12671991522 62.52671991522 C 73.18421608882495 56.13311234912618 76 48.17770553947789 76 40 C 76 30.5 72.2 21.3 65.5 14.5 C 58.7 7.8 49.5 4 40 4 C 30.5 4 21.3 7.8 14.5 14.5 C 7.8 21.3 4 30.5 4 40 L 4 40 C 4 49.5 7.8 58.7 14.5 65.5 C 21.3 72.2 30.5 76 40 76 C 48.17770553947789 76 56.13311234912618 73.18421608882495 62.52671991522 68.12671991522 L 85.2 90.8 C 85.9 91.6 86.9 92 88 92 C 89.1 92 90.1 91.6 90.8 90.8 C 91.6 90.1 92 89.1 92 88 C 92 86.9 91.6 85.9 90.8 85.2 L 68.12671991522 62.52671991522 Z  M 12 40 C 12 47.4 15 54.5 20.2 59.8 C 25.5 65 32.6 68 40 68 C 47.4 68 54.5 65 59.8 59.8 C 65 54.5 68 47.4 68 40 C 68 32.6 65 25.5 59.8 20.2 C 54.5 15 47.4 12 40 12 C 32.6 12 25.5 15 20.2 20.2 C 15 25.5 12 32.6 12 40 L 12 40 Z  M 36 36 L 28 36 C 26.9 36 25.9 36.4 25.2 37.2 C 24.4 37.9 24 38.9 24 40 C 24 41.1 24.4 42.1 25.2 42.8 C 25.9 43.6 26.9 44 28 44 L 36 44 L 36 52 C 36 53.1 36.4 54.1 37.2 54.8 C 37.9 55.6 38.9 56 40 56 C 41.1 56 42.1 55.6 42.8 54.8 C 43.6 54.1 44 53.1 44 52 L 44 44 L 52 44 C 53.1 44 54.1 43.6 54.8 42.8 C 55.6 42.1 56 41.1 56 40 C 56 38.9 55.6 37.9 54.8 37.2 C 54.1 36.4 53.1 36 52 36 L 44 36 L 44 28 C 44 26.9 43.6 25.9 42.8 25.2 C 42.1 24.4 41.1 24 40 24 C 38.9 24 37.9 24.4 37.2 25.2 C 36.4 25.9 36 26.9 36 28 L 36 36 Z " fill-rule="evenodd" fill="none" stroke="none" stroke-width="16" mask="url(#_mask_v0FNT6buZ3tIazav6JORJmBUZWq8DI2y)"/></svg>
